X:1
T:Letkis Jenka    (Dm)
C:anon.
O:Finland
R:Jenka
Z:Transcribed by Frank Nordberg - http://www.musicaviva.com
F:http://abc.musicaviva.com/tunes/finland/letkis-jenka/letkis-jenka.abc
M:C|
L:1/8
K:Dm
|:\
"Dm"A2 z2 A2 z2 | "Gm"A>^GA>B A2 z2 | "A7"G2 z2 G2 z2 | G>^FG>A G2 z2 |
"Dm"A2 z2 A2 z2 | A>^GA>B A>Ad>e | "Dm"f2 e2 "A7"d>^c=B>c | "Dm"d2 d2 d2 !fine!z2 :|
"C"e4 e3e | "Bb"d2e2 d4 | "F"c2c2 c>BA>B | c6 z2 |
"C"e4 e3e | "Bb"d2e2 d4 | "A7"^c4 "Dm"d4 | "B7"^d4 "E7"e4 "_D.C."|]
